2 Export/Icons/Rounded/Document.svg

<svg xmlns="http://www.w3.org/2000/svg" xmlns:xlink="http://www.w3.org/1999/xlink" width="24" height="24" viewBox="0 0 24 24">
  <defs>
    <path id="document-a" d="M14.59 2.59c-.38-.38-.89-.59-1.42-.59H6c-1.1 0-2 .9-2 2v16c0 1.1.89 2 1.99 2H18c1.1 0 2-.9 2-2V8.83c0-.53-.21-1.04-.59-1.41l-4.82-4.83zM15 18H9c-.55 0-1-.45-1-1s.45-1 1-1h6c.55 0 1 .45 1 1s-.45 1-1 1zm0-4H9c-.55 0-1-.45-1-1s.45-1 1-1h6c.55 0 1 .45 1 1s-.45 1-1 1zm-2-6V3.5L18.5 9H14c-.55 0-1-.45-1-1z"/>
  </defs>
  <g fill="none" fill-rule="evenodd">
    <polygon points="0 0 24 0 24 24 0 24"/>
    <mask id="document-b" fill="#fff">
      <use xlink:href="#document-a"/>
    </mask>
    <use fill="#000" xlink:href="#document-a"/>
    <g fill="#000" mask="url(#document-b)">
      <rect width="24" height="24"/>
    </g>
  </g>
</svg>

<svg xmlns="http://www.w3.org/2000/svg" xmlns:xlink="http://www.w3.org/1999/xlink" width="24" height="24" viewBox="0 0 24 24">
  <defs>
    <path id="document-a" d="M14.59,2.59 C14.21,2.21 13.7,2 13.17,2 L6,2 C4.9,2 4,2.9 4,4 L4,20 C4,21.1 4.89,22 5.99,22 L18,22 C19.1,22 20,21.1 20,20 L20,8.83 C20,8.3 19.79,7.79 19.41,7.42 L14.59,2.59 Z M15,18 L9,18 C8.45,18 8,17.55 8,17 C8,16.45 8.45,16 9,16 L15,16 C15.55,16 16,16.45 16,17 C16,17.55 15.55,18 15,18 Z M15,14 L9,14 C8.45,14 8,13.55 8,13 C8,12.45 8.45,12 9,12 L15,12 C15.55,12 16,12.45 16,13 C16,13.55 15.55,14 15,14 Z M13,8 L13,3.5 L18.5,9 L14,9 C13.45,9 13,8.55 13,8 Z"/>
  </defs>
  <g fill="none" fill-rule="evenodd">
    <polygon points="0 0 24 0 24 24 0 24"/>
    <mask id="document-b" fill="#fff">
      <use xlink:href="#document-a"/>
    </mask>
    <use fill="#000" xlink:href="#document-a"/>
    <g fill="#000" mask="url(#document-b)">
      <rect width="24" height="24"/>
    </g>
  </g>
</svg>
